icons/modern/magnifying-glass-tilted-right.svg

<svg width="32" height="32" viewBox="0 0 32 32" fill="none" xmlns="http://www.w3.org/2000/svg">
	<g filter="url(#filter0_iii_18_20475)">
		<path transform="matrix(-0.707107 -0.707107 -0.707107 0.707107 14.5859 22.8672)" fill="url(#paint0_linear_18_20475)" d="M3.7565 0h0s3.7565 0 3.7565 3.7565v4.6956s0 3.7565 -3.7565 3.7565h0s-3.7565 0 -3.7565 -3.7565v-4.6956s0 -3.7565 3.7565 -3.7565" />
		<path transform="matrix(-0.707107 -0.707107 -0.707107 0.707107 14.5859 22.8672)" fill="url(#paint1_linear_18_20475)" d="M3.7565 0h0s3.7565 0 3.7565 3.7565v4.6956s0 3.7565 -3.7565 3.7565h0s-3.7565 0 -3.7565 -3.7565v-4.6956s0 -3.7565 3.7565 -3.7565" />
		<path transform="matrix(-0.707107 -0.707107 -0.707107 0.707107 14.5859 22.8672)" fill="url(#paint2_linear_18_20475)" d="M3.7565 0h0s3.7565 0 3.7565 3.7565v4.6956s0 3.7565 -3.7565 3.7565h0s-3.7565 0 -3.7565 -3.7565v-4.6956s0 -3.7565 3.7565 -3.7565" />
	</g>
	<path transform="matrix(-0.707107 -0.707107 -0.707107 0.707107 14.5859 22.8672)" fill="url(#paint3_radial_18_20475)" d="M3.7565 0h0s3.7565 0 3.7565 3.7565v4.6956s0 3.7565 -3.7565 3.7565h0s-3.7565 0 -3.7565 -3.7565v-4.6956s0 -3.7565 3.7565 -3.7565" />
	<path fill-rule="evenodd" clip-rule="evenodd" d="M19.0938 23.7969C13.1222 23.7969 8.28125 18.956 8.28125 12.9844C8.28125 7.01279 13.1222 2.17188 19.0938 2.17188C25.0653 2.17188 29.9062 7.01279 29.9062 12.9844C29.9062 18.956 25.0653 23.7969 19.0938 23.7969ZM19.0938 22.0469C14.0887 22.0469 10.0312 17.9894 10.0312 12.9844C10.0312 7.97931 14.0887 3.92188 19.0938 3.92188C24.0988 3.92188 28.1562 7.97931 28.1562 12.9844C28.1562 17.9894 24.0988 22.0469 19.0938 22.0469Z" fill="url(#paint4_linear_18_20475)" />
	<g filter="url(#filter1_f_18_20475)">
		<path fill-rule="evenodd" clip-rule="evenodd" d="M19.0938 23.5523C13.2572 23.5523 8.52578 18.8209 8.52578 12.9844C8.52578 7.14782 13.2572 2.41638 19.0938 2.41638C24.9303 2.41638 29.6617 7.14782 29.6617 12.9844C29.6617 18.8209 24.9303 23.5523 19.0938 23.5523ZM19.0938 21.8419C14.2019 21.8419 10.2362 17.8762 10.2362 12.9844C10.2362 8.09248 14.2019 4.12681 19.0938 4.12681C23.9856 4.12681 27.9513 8.09248 27.9513 12.9844C27.9513 17.8762 23.9856 21.8419 19.0938 21.8419Z" fill="url(#paint5_linear_18_20475)" />
		<path fill-rule="evenodd" clip-rule="evenodd" d="M19.0938 23.5523C13.2572 23.5523 8.52578 18.8209 8.52578 12.9844C8.52578 7.14782 13.2572 2.41638 19.0938 2.41638C24.9303 2.41638 29.6617 7.14782 29.6617 12.9844C29.6617 18.8209 24.9303 23.5523 19.0938 23.5523ZM19.0938 21.8419C14.2019 21.8419 10.2362 17.8762 10.2362 12.9844C10.2362 8.09248 14.2019 4.12681 19.0938 4.12681C23.9856 4.12681 27.9513 8.09248 27.9513 12.9844C27.9513 17.8762 23.9856 21.8419 19.0938 21.8419Z" fill="url(#paint6_radial_18_20475)" />
	</g>
	<g filter="url(#filter2_f_18_20475)">
		<path transform="matrix(-1 0 0 1 19.0937 12.9844)" fill="url(#paint7_linear_18_20475)" d="M-9.295 0a9.2951 9.2951 0 1 0 18.5901 0a9.2951 9.2951 0 1 0 -18.5901 0" />
	</g>
	<g filter="url(#filter3_ii_18_20475)">
		<path transform="matrix(-1 0 0 1 19.0938 12.9844)" fill="#64D0EA" d="M-9.0625 0a9.0625 9.0625 0 1 0 18.125 0a9.0625 9.0625 0 1 0 -18.125 0" />
	</g>
	<path transform="rotate(-38.8957 23.3229 9.13001)" fill="url(#paint8_linear_18_20475)" d="M21.6717 9.13a1.6512 2.0334 0 1 0 3.3025 0a1.6512 2.0334 0 1 0 -3.3025 0" />
	<defs>
		<filter id="filter0_iii_18_20475" x="1.19666" y="18.8607" width="11.8333" height="12.0833" filterUnits="userSpaceOnUse" color-interpolation-filters="sRGB">
			<feFlood flood-opacity="0" result="BackgroundImageFix">
			</feFlood>
			<feBlend mode="normal" in="SourceGraphic" in2="BackgroundImageFix" result="shape">
			</feBlend>
			<feColorMatrix in="SourceAlpha" type="matrix" values="0 0 0 0 0 0 0 0 0 0 0 0 0 0 0 0 0 0 127 0" result="hardAlpha">
			</feColorMatrix>
			<feOffset dx="-1" dy="1">
			</feOffset>
			<feGaussianBlur stdDeviation="1.5">
			</feGaussianBlur>
			<feComposite in2="hardAlpha" operator="arithmetic" k2="-1" k3="1">
			</feComposite>
			<feColorMatrix type="matrix" values="0 0 0 0 0.4 0 0 0 0 0.239216 0 0 0 0 0.439216 0 0 0 1 0">
			</feColorMatrix>
			<feBlend mode="normal" in2="shape" result="effect1_innerShadow_18_20475">
			</feBlend>
			<feColorMatrix in="SourceAlpha" type="matrix" values="0 0 0 0 0 0 0 0 0 0 0 0 0 0 0 0 0 0 127 0" result="hardAlpha">
			</feColorMatrix>
			<feOffset dy="-0.25">
			</feOffset>
			<feGaussianBlur stdDeviation="0.375">
			</feGaussianBlur>
			<feComposite in2="hardAlpha" operator="arithmetic" k2="-1" k3="1">
			</feComposite>
			<feColorMatrix type="matrix" values="0 0 0 0 0.639216 0 0 0 0 0.490196 0 0 0 0 0.643137 0 0 0 1 0">
			</feColorMatrix>
			<feBlend mode="normal" in2="effect1_innerShadow_18_20475" result="effect2_innerShadow_18_20475">
			</feBlend>
			<feColorMatrix in="SourceAlpha" type="matrix" values="0 0 0 0 0 0 0 0 0 0 0 0 0 0 0 0 0 0 127 0" result="hardAlpha">
			</feColorMatrix>
			<feOffset dy="1">
			</feOffset>
			<feGaussianBlur stdDeviation="0.75">
			</feGaussianBlur>
			<feComposite in2="hardAlpha" operator="arithmetic" k2="-1" k3="1">
			</feComposite>
			<feColorMatrix type="matrix" values="0 0 0 0 0.333333 0 0 0 0 0.27451 0 0 0 0 0.380392 0 0 0 1 0">
			</feColorMatrix>
			<feBlend mode="normal" in2="effect2_innerShadow_18_20475" result="effect3_innerShadow_18_20475">
			</feBlend>
		</filter>
		<filter id="filter1_f_18_20475" x="8.22576" y="2.11638" width="21.736" height="21.736" filterUnits="userSpaceOnUse" color-interpolation-filters="sRGB">
			<feFlood flood-opacity="0" result="BackgroundImageFix">
			</feFlood>
			<feBlend mode="normal" in="SourceGraphic" in2="BackgroundImageFix" result="shape">
			</feBlend>
			<feGaussianBlur stdDeviation="0.15" result="effect1_foregroundBlur_18_20475">
			</feGaussianBlur>
		</filter>
		<filter id="filter2_f_18_20475" x="9.59871" y="3.48933" width="18.9901" height="18.9901" filterUnits="userSpaceOnUse" color-interpolation-filters="sRGB">
			<feFlood flood-opacity="0" result="BackgroundImageFix">
			</feFlood>
			<feBlend mode="normal" in="SourceGraphic" in2="BackgroundImageFix" result="shape">
			</feBlend>
			<feGaussianBlur stdDeviation="0.1" result="effect1_foregroundBlur_18_20475">
			</feGaussianBlur>
		</filter>
		<filter id="filter3_ii_18_20475" x="10.0312" y="3.77187" width="18.125" height="19.275" filterUnits="userSpaceOnUse" color-interpolation-filters="sRGB">
			<feFlood flood-opacity="0" result="BackgroundImageFix">
			</feFlood>
			<feBlend mode="normal" in="SourceGraphic" in2="BackgroundImageFix" result="shape">
			</feBlend>
			<feColorMatrix in="SourceAlpha" type="matrix" values="0 0 0 0 0 0 0 0 0 0 0 0 0 0 0 0 0 0 127 0" result="hardAlpha">
			</feColorMatrix>
			<feOffset dy="1">
			</feOffset>
			<feGaussianBlur stdDeviation="1">
			</feGaussianBlur>
			<feComposite in2="hardAlpha" operator="arithmetic" k2="-1" k3="1">
			</feComposite>
			<feColorMatrix type="matrix" values="0 0 0 0 0.168627 0 0 0 0 0.603922 0 0 0 0 0.956863 0 0 0 1 0">
			</feColorMatrix>
			<feBlend mode="normal" in2="shape" result="effect1_innerShadow_18_20475">
			</feBlend>
			<feColorMatrix in="SourceAlpha" type="matrix" values="0 0 0 0 0 0 0 0 0 0 0 0 0 0 0 0 0 0 127 0" result="hardAlpha">
			</feColorMatrix>
			<feOffset dy="-0.15">
			</feOffset>
			<feGaussianBlur stdDeviation="0.15">
			</feGaussianBlur>
			<feComposite in2="hardAlpha" operator="arithmetic" k2="-1" k3="1">
			</feComposite>
			<feColorMatrix type="matrix" values="0 0 0 0 0.137255 0 0 0 0 0.607843 0 0 0 0 0.984314 0 0 0 1 0">
			</feColorMatrix>
			<feBlend mode="normal" in2="effect1_innerShadow_18_20475" result="effect2_innerShadow_18_20475">
			</feBlend>
		</filter>
		<linearGradient id="paint0_linear_18_20475" x1="0.629767" y1="10.3635" x2="4.9608" y2="1.83406" gradientUnits="userSpaceOnUse">
			<stop stop-color="#A0659C">
			</stop>
			<stop offset="1" stop-color="#895792">
			</stop>
		</linearGradient>
		<linearGradient id="paint1_linear_18_20475" x1="3.74546" y1="0.53033" x2="3.75651" y2="4.81716" gradientUnits="userSpaceOnUse">
			<stop stop-color="#6C3B74">
			</stop>
			<stop offset="1" stop-color="#845590" stop-opacity="0">
			</stop>
		</linearGradient>
		<linearGradient id="paint2_linear_18_20475" x1="7.61245" y1="8.3306" x2="2.46382" y2="8.17592" gradientUnits="userSpaceOnUse">
			<stop offset="0.115168" stop-color="#703D7A">
			</stop>
			<stop offset="1" stop-color="#703D7A" stop-opacity="0">
			</stop>
		</linearGradient>
		<radialGradient id="paint3_radial_18_20475" cx="0" cy="0" r="1" gradientUnits="userSpaceOnUse" gradientTransform="translate(3.8007 -0.187825) rotate(92.4424) scale(2.33336 5.42286)">
			<stop stop-color="#2F1A3D">
			</stop>
			<stop offset="1" stop-color="#532D64" stop-opacity="0">
			</stop>
		</radialGradient>
		<linearGradient id="paint4_linear_18_20475" x1="19.0938" y1="2.17187" x2="19.0938" y2="23.7969" gradientUnits="userSpaceOnUse">
			<stop offset="0.378529" stop-color="#344A7D">
			</stop>
			<stop offset="0.633316" stop-color="#785790">
			</stop>
			<stop offset="0.837142" stop-color="#785790">
			</stop>
			<stop offset="1" stop-color="#9872A2">
			</stop>
		</linearGradient>
		<linearGradient id="paint5_linear_18_20475" x1="19.0938" y1="2.41638" x2="19.0938" y2="23.5523" gradientUnits="userSpaceOnUse">
			<stop stop-color="#475890">
			</stop>
			<stop offset="1" stop-color="#7A4D87">
			</stop>
		</linearGradient>
		<radialGradient id="paint6_radial_18_20475" cx="0" cy="0" r="1" gradientUnits="userSpaceOnUse" gradientTransform="translate(19.0938 7.40622) rotate(-89.9999) scale(5.125 9.53123)">
			<stop offset="0.704268" stop-color="#566298">
			</stop>
			<stop offset="0.786585" stop-color="#566298" stop-opacity="0">
			</stop>
		</radialGradient>
		<linearGradient id="paint7_linear_18_20475" x1="9.29505" y1="0" x2="9.29505" y2="18.5901" gradientUnits="userSpaceOnUse">
			<stop stop-color="#204083">
			</stop>
			<stop offset="1" stop-color="#523573">
			</stop>
		</linearGradient>
		<linearGradient id="paint8_linear_18_20475" x1="23.3229" y1="7.09658" x2="23.3229" y2="11.1634" gradientUnits="userSpaceOnUse">
			<stop stop-color="#DCDBF2">
			</stop>
			<stop offset="0.209118" stop-color="#DCDBF2" stop-opacity="0.84797">
			</stop>
			<stop offset="1" stop-color="#DCDBF2" stop-opacity="0">
			</stop>
		</linearGradient>
	</defs>
</svg>

<svg width="32" height="32" fill="none" xmlns="http://www.w3.org/2000/svg"><g filter="url(#a)"><path transform="scale(-1 1) rotate(-45 20.31 29.04)" fill="url(#b)" d="M3.756 0s3.757 0 3.757 3.756v4.696s0 3.757-3.756 3.757S0 12.209 0 8.452V3.757S0 0 3.756 0"/><path transform="scale(-1 1) rotate(-45 20.31 29.04)" fill="url(#c)" d="M3.756 0s3.757 0 3.757 3.756v4.696s0 3.757-3.756 3.757S0 12.209 0 8.452V3.757S0 0 3.756 0"/><path transform="scale(-1 1) rotate(-45 20.31 29.04)" fill="url(#d)" d="M3.756 0s3.757 0 3.757 3.756v4.696s0 3.757-3.756 3.757S0 12.209 0 8.452V3.757S0 0 3.756 0"/></g><path transform="scale(-1 1) rotate(-45 20.31 29.04)" fill="url(#e)" d="M3.756 0s3.757 0 3.757 3.756v4.696s0 3.757-3.756 3.757S0 12.209 0 8.452V3.757S0 0 3.756 0"/><path fill-rule="evenodd" clip-rule="evenodd" d="M19.094 23.797c-5.972 0-10.813-4.841-10.813-10.813 0-5.971 4.841-10.812 10.813-10.812 5.971 0 10.812 4.84 10.812 10.812 0 5.972-4.84 10.813-10.812 10.813Zm0-1.75a9.063 9.063 0 1 1 0-18.125 9.063 9.063 0 0 1 0 18.125Z" fill="url(#f)"/><g filter="url(#g)" fill-rule="evenodd" clip-rule="evenodd"><path d="M19.094 23.552c-5.837 0-10.568-4.731-10.568-10.568 0-5.836 4.731-10.568 10.568-10.568 5.836 0 10.568 4.732 10.568 10.568 0 5.837-4.732 10.568-10.568 10.568Zm0-1.71a8.858 8.858 0 1 1 0-17.715 8.858 8.858 0 0 1 0 17.715Z" fill="url(#h)"/><path d="M19.094 23.552c-5.837 0-10.568-4.731-10.568-10.568 0-5.836 4.731-10.568 10.568-10.568 5.836 0 10.568 4.732 10.568 10.568 0 5.837-4.732 10.568-10.568 10.568Zm0-1.71a8.858 8.858 0 1 1 0-17.715 8.858 8.858 0 0 1 0 17.715Z" fill="url(#i)"/></g><g filter="url(#j)"><path transform="matrix(-1 0 0 1 19.094 12.984)" fill="url(#k)" d="M-9.295 0a9.295 9.295 0 1 0 18.59 0 9.295 9.295 0 1 0-18.59 0"/></g><g filter="url(#l)"><path fill="#64D0EA" d="M28.156 12.984a9.063 9.063 0 1 1-18.125 0 9.063 9.063 0 1 1 18.125 0"/></g><path transform="rotate(-38.896 23.323 9.13)" fill="url(#m)" d="M21.672 9.13a1.651 2.033 0 1 0 3.302 0 1.651 2.033 0 1 0-3.302 0"/><defs><linearGradient id="b" x1=".63" y1="10.364" x2="4.961" y2="1.834" gradientUnits="userSpaceOnUse"><stop stop-color="#A0659C"/><stop offset="1" stop-color="#895792"/></linearGradient><linearGradient id="c" x1="3.745" y1=".53" x2="3.757" y2="4.817" gradientUnits="userSpaceOnUse"><stop stop-color="#6C3B74"/><stop offset="1" stop-color="#845590" stop-opacity="0"/></linearGradient><linearGradient id="d" x1="7.612" y1="8.331" x2="2.464" y2="8.176" gradientUnits="userSpaceOnUse"><stop offset=".115" stop-color="#703D7A"/><stop offset="1" stop-color="#703D7A" stop-opacity="0"/></linearGradient><linearGradient id="f" x1="19.094" y1="2.172" x2="19.094" y2="23.797" gradientUnits="userSpaceOnUse"><stop offset=".379" stop-color="#344A7D"/><stop offset=".633" stop-color="#785790"/><stop offset=".837" stop-color="#785790"/><stop offset="1" stop-color="#9872A2"/></linearGradient><linearGradient id="h" x1="19.094" y1="2.416" x2="19.094" y2="23.552" gradientUnits="userSpaceOnUse"><stop stop-color="#475890"/><stop offset="1" stop-color="#7A4D87"/></linearGradient><linearGradient id="k" x1="9.295" y1="0" x2="9.295" y2="18.59" gradientUnits="userSpaceOnUse"><stop stop-color="#204083"/><stop offset="1" stop-color="#523573"/></linearGradient><linearGradient id="m" x1="23.323" y1="7.097" x2="23.323" y2="11.163" gradientUnits="userSpaceOnUse"><stop stop-color="#DCDBF2"/><stop offset=".209" stop-color="#DCDBF2" stop-opacity=".848"/><stop offset="1" stop-color="#DCDBF2" stop-opacity="0"/></linearGradient><filter id="a" x="1.197" y="18.861" width="11.833" height="12.083" filterUnits="userSpaceOnUse" color-interpolation-filters="sRGB"><feFlood flood-opacity="0" result="BackgroundImageFix"/><feBlend in="SourceGraphic" in2="BackgroundImageFix" result="shape"/><feColorMatrix in="SourceAlpha" values="0 0 0 0 0 0 0 0 0 0 0 0 0 0 0 0 0 0 127 0" result="hardAlpha"/><feOffset dx="-1" dy="1"/><feGaussianBlur stdDeviation="1.5"/><feComposite in2="hardAlpha" operator="arithmetic" k2="-1" k3="1"/><feColorMatrix values="0 0 0 0 0.4 0 0 0 0 0.239216 0 0 0 0 0.439216 0 0 0 1 0"/><feBlend in2="shape" result="effect1_innerShadow_18_20475"/><feColorMatrix in="SourceAlpha" values="0 0 0 0 0 0 0 0 0 0 0 0 0 0 0 0 0 0 127 0" result="hardAlpha"/><feOffset dy="-.25"/><feGaussianBlur stdDeviation=".375"/><feComposite in2="hardAlpha" operator="arithmetic" k2="-1" k3="1"/><feColorMatrix values="0 0 0 0 0.639216 0 0 0 0 0.490196 0 0 0 0 0.643137 0 0 0 1 0"/><feBlend in2="effect1_innerShadow_18_20475" result="effect2_innerShadow_18_20475"/><feColorMatrix in="SourceAlpha" values="0 0 0 0 0 0 0 0 0 0 0 0 0 0 0 0 0 0 127 0" result="hardAlpha"/><feOffset dy="1"/><feGaussianBlur stdDeviation=".75"/><feComposite in2="hardAlpha" operator="arithmetic" k2="-1" k3="1"/><feColorMatrix values="0 0 0 0 0.333333 0 0 0 0 0.27451 0 0 0 0 0.380392 0 0 0 1 0"/><feBlend in2="effect2_innerShadow_18_20475" result="effect3_innerShadow_18_20475"/></filter><filter id="g" x="8.226" y="2.116" width="21.736" height="21.736" filterUnits="userSpaceOnUse" color-interpolation-filters="sRGB"><feFlood flood-opacity="0" result="BackgroundImageFix"/><feBlend in="SourceGraphic" in2="BackgroundImageFix" result="shape"/><feGaussianBlur stdDeviation=".15" result="effect1_foregroundBlur_18_20475"/></filter><filter id="j" x="9.599" y="3.489" width="18.99" height="18.99" filterUnits="userSpaceOnUse" color-interpolation-filters="sRGB"><feFlood flood-opacity="0" result="BackgroundImageFix"/><feBlend in="SourceGraphic" in2="BackgroundImageFix" result="shape"/><feGaussianBlur stdDeviation=".1" result="effect1_foregroundBlur_18_20475"/></filter><filter id="l" x="10.031" y="3.772" width="18.125" height="19.275" filterUnits="userSpaceOnUse" color-interpolation-filters="sRGB"><feFlood flood-opacity="0" result="BackgroundImageFix"/><feBlend in="SourceGraphic" in2="BackgroundImageFix" result="shape"/><feColorMatrix in="SourceAlpha" values="0 0 0 0 0 0 0 0 0 0 0 0 0 0 0 0 0 0 127 0" result="hardAlpha"/><feOffset dy="1"/><feGaussianBlur stdDeviation="1"/><feComposite in2="hardAlpha" operator="arithmetic" k2="-1" k3="1"/><feColorMatrix values="0 0 0 0 0.168627 0 0 0 0 0.603922 0 0 0 0 0.956863 0 0 0 1 0"/><feBlend in2="shape" result="effect1_innerShadow_18_20475"/><feColorMatrix in="SourceAlpha" values="0 0 0 0 0 0 0 0 0 0 0 0 0 0 0 0 0 0 127 0" result="hardAlpha"/><feOffset dy="-.15"/><feGaussianBlur stdDeviation=".15"/><feComposite in2="hardAlpha" operator="arithmetic" k2="-1" k3="1"/><feColorMatrix values="0 0 0 0 0.137255 0 0 0 0 0.607843 0 0 0 0 0.984314 0 0 0 1 0"/><feBlend in2="effect1_innerShadow_18_20475" result="effect2_innerShadow_18_20475"/></filter><radialGradient id="e" cx="0" cy="0" r="1" gradientUnits="userSpaceOnUse" gradientTransform="rotate(92.442 1.99 1.727) scale(2.33336 5.42286)"><stop stop-color="#2F1A3D"/><stop offset="1" stop-color="#532D64" stop-opacity="0"/></radialGradient><radialGradient id="i" cx="0" cy="0" r="1" gradientUnits="userSpaceOnUse" gradientTransform="matrix(0 -5.125 9.53123 .00002 19.094 7.406)"><stop offset=".704" stop-color="#566298"/><stop offset=".787" stop-color="#566298" stop-opacity="0"/></radialGradient></defs></svg>
